X:1
T:Title
L:1/8
M:2/4
K:Bb
V:1 treble nm="Grand Piano"
V:1
 z[Q:1/4=100] D CD | E2 G2- | G F2 E | E2 D2- | D G2 A | B2 G2- | G c2 B | A4- | A G2 A | B2 G2- | %10
 G F2 D | G4- | G C2 D | E2 G2- | G ^F2 A | G4 | z d2 B | A2 G2- | G c2 e | d4- | d d2 B | A2 G2- | %22
 G =B2 d | c4- | c A2 G | F2 E2- | E A2 c | B4- | BA AG | ^F2 G2 | A2 Bc | d d2 B | A2 G2- | %33
 G c2 e | d4- | d d2 B | A2 G2- | G =B2 d | c4- | c A2 A | c2 A2- | A G2 F | A4- | AC DE | %44
 G2 ^F2- | F A2 B | G4 |] %47

